packages/appstore/src/assets/svgs/wallet/maestro-light.svg

<svg width="128" height="80" viewBox="0 0 128 80" fill="none" xmlns="http://www.w3.org/2000/svg">
<path d="M47.6911 71.2079V66.9576C47.8306 65.5618 46.7837 64.3788 45.3896 64.2393H45.0407C44.0636 64.1695 43.226 64.658 42.6677 65.424C42.1791 64.658 41.3434 64.1713 40.4361 64.2393C39.6665 64.1695 38.9006 64.5882 38.4818 65.2146V64.3788H37.0859V71.2061H38.5534V67.4444C38.5534 66.2597 39.1798 65.6334 40.1569 65.6334C41.134 65.6334 41.6208 66.2597 41.6208 67.4444V71.2061H43.0882V67.4444C42.9468 66.6087 43.575 65.7729 44.4125 65.6334H44.6917C45.667 65.6334 46.1556 66.2597 46.1556 67.4444V71.2061H47.6911V71.2079ZM55.8534 67.7934V71.2061H54.3877V70.3704C53.8991 70.9968 53.1332 71.4155 52.2939 71.3457C50.3432 71.2061 48.8078 69.5347 48.9473 67.584C49.0869 65.7729 50.481 64.3788 52.2939 64.2393C53.1332 64.2393 53.8991 64.5882 54.3877 65.2146V64.3788H55.8534V67.7934ZM50.413 67.7934C50.481 68.9083 51.4581 69.744 52.5748 69.6725C53.6915 69.6045 54.5273 68.6291 54.4575 67.5142C54.3877 66.4691 53.4822 65.6334 52.4353 65.6334C51.3186 65.6334 50.413 66.5389 50.413 67.6538V67.7934ZM86.8992 64.2393C87.386 64.2393 87.8745 64.3108 88.2951 64.5184C88.712 64.658 89.1308 64.9354 89.41 65.2844C89.759 65.6333 89.9683 65.9823 90.1777 66.3993C90.5267 67.3048 90.5267 68.3499 90.1777 69.2555C90.0381 69.6742 89.759 70.0912 89.41 70.3704C88.3631 71.3457 86.7596 71.6947 85.4335 71.1363C85.0147 70.9287 84.596 70.7194 84.3168 70.3704C84.0376 70.0232 83.7585 69.6725 83.6189 69.1857C83.2699 68.2802 83.2699 67.235 83.6189 66.3295C83.7585 65.9125 84.0376 65.4938 84.3884 65.2146C84.7356 64.8674 85.0845 64.658 85.5033 64.4486C85.9221 64.3091 86.4106 64.2393 86.8992 64.2393ZM86.8992 65.6334C86.62 65.6334 86.3408 65.7031 86.0617 65.7729C85.5731 65.9805 85.1543 66.3993 84.945 66.8878C84.8054 67.1652 84.8054 67.4444 84.8054 67.7934C84.8054 68.0708 84.877 68.4197 84.945 68.6989C85.0148 68.9781 85.2241 69.1857 85.3637 69.3969C85.5731 69.6044 85.7825 69.744 86.0617 69.8138C86.62 70.0232 87.1784 70.0232 87.7349 69.8138C88.0141 69.7423 88.2235 69.5347 88.4329 69.3951C88.6423 69.1857 88.7818 68.9781 88.8516 68.6971C88.9912 68.4197 88.9912 68.1424 88.9912 67.7934C88.9912 67.5142 88.9214 67.167 88.8516 66.8878C88.7818 66.6087 88.5725 66.3993 88.4329 66.1899C88.0141 65.8427 87.5255 65.6334 86.8992 65.6334ZM63.7365 67.7934V68.3499H58.7829C58.8545 69.3253 59.76 70.0912 60.7372 70.0232C61.4351 70.0232 62.133 69.744 62.6896 69.3253L63.3876 70.4402C62.6198 71.0665 61.6445 71.4155 60.6674 71.4155C58.8527 71.4871 57.319 70.0232 57.2493 68.2122V67.8632C57.2493 65.7729 58.6451 64.3091 60.5958 64.3091C62.55 64.3091 63.7365 65.7031 63.7365 67.7934ZM58.7829 67.167H62.2726C62.2726 66.2597 61.5031 65.4938 60.5976 65.4938C59.6205 65.4938 58.7829 66.2597 58.7829 67.1652V67.167ZM69.8766 66.1201C69.2485 65.7729 68.5505 65.5636 67.7828 65.5636C67.015 65.5636 66.5265 65.8427 66.5265 66.3295C66.5265 66.8181 67.015 66.8879 67.6432 67.0274L68.3411 67.0954C69.8068 67.3048 70.6425 67.933 70.6425 69.1177C70.6425 70.3006 69.5276 71.3457 67.5734 71.3457C66.5265 71.3457 65.5512 71.0683 64.7136 70.4402L65.4116 69.2555C66.0379 69.744 66.8075 69.9534 67.6432 69.9534C68.6203 69.9534 69.1787 69.6742 69.1787 69.1159C69.1787 68.6989 68.8297 68.4895 67.9922 68.4197L67.2942 68.3499C65.8303 68.1406 64.9928 67.4444 64.9928 66.3295C64.9928 65.0052 66.1095 64.1695 67.7846 64.1695C68.7599 64.0997 69.6672 64.3788 70.5047 64.8674L69.8766 66.1201ZM76.8524 65.7729H74.4812V68.8385C74.4812 69.5347 74.6906 69.9534 75.4565 69.9534C75.8753 69.9534 76.3639 69.8138 76.7128 69.5347L77.1316 70.7874C76.5732 71.1363 75.9451 71.3457 75.317 71.3457C73.5739 71.3457 73.0155 70.4402 73.0155 68.8385V65.7729H71.6197V64.4486H72.944V62.3584H74.4114V64.4486H76.7826L76.8524 65.7729ZM81.8758 64.2393C82.2248 64.2393 82.5737 64.3108 82.9227 64.4486L82.504 65.8427C82.2248 65.7031 81.8758 65.7031 81.5966 65.7031C80.6195 65.7031 80.2007 66.3295 80.2007 67.4444V71.2759H78.6671V64.4486H80.131V65.2844C80.4101 64.5864 81.1081 64.2393 81.8758 64.2393Z" fill="black"/>
<circle cx="49" cy="33" r="25" fill="#EB001B"/>
<circle cx="79" cy="33" r="25" fill="#00A1DF"/>
<path fill-rule="evenodd" clip-rule="evenodd" d="M64 53.0017C70.0722 48.4407 74 41.179 74 32.9999C74 24.8208 70.0722 17.5591 64 12.998C57.9278 17.5591 54 24.8208 54 32.9999C54 41.179 57.9278 48.4407 64 53.0017Z" fill="#7673C0"/>
</svg>

<svg width="128" height="80" fill="none" xmlns="http://www.w3.org/2000/svg"><path d="M47.691 71.208v-4.25c.14-1.396-.907-2.58-2.301-2.719h-.35c-.976-.07-1.814.419-2.372 1.185-.489-.766-1.325-1.253-2.232-1.185-.77-.07-1.535.35-1.954.976v-.836h-1.396v6.827h1.467v-3.762c0-1.184.627-1.81 1.604-1.81.977 0 1.464.626 1.464 1.81v3.762h1.467v-3.762c-.141-.835.487-1.671 1.325-1.81h.279c.975 0 1.464.626 1.464 1.81v3.762h1.535v.002zm8.162-3.415v3.413h-1.465v-.836c-.489.627-1.255 1.045-2.094.976-1.95-.14-3.486-1.811-3.347-3.762a3.598 3.598 0 0 1 3.347-3.345c.84 0 1.605.35 2.094.976v-.836h1.465v3.414zm-5.44 0c.068 1.115 1.045 1.951 2.162 1.88 1.116-.069 1.952-1.044 1.883-2.159-.07-1.045-.976-1.88-2.023-1.88a2.022 2.022 0 0 0-2.022 2.02v.14zm36.486-3.554c.487 0 .975.072 1.396.28.417.139.836.416 1.115.765.349.35.558.698.768 1.115.349.906.349 1.95 0 2.856-.14.42-.419.836-.768 1.115-1.047.976-2.65 1.325-3.977.766-.418-.207-.837-.417-1.116-.766-.28-.347-.558-.698-.698-1.184a4.027 4.027 0 0 1 0-2.857c.14-.416.419-.835.77-1.114.347-.348.696-.557 1.114-.766.42-.14.908-.21 1.396-.21zm0 1.394c-.279 0-.558.07-.837.14a2.17 2.17 0 0 0-1.117 1.115c-.14.277-.14.556-.14.905 0 .278.072.627.14.906.07.28.28.487.419.698.21.207.418.347.698.417.558.21 1.116.21 1.673 0 .28-.072.489-.28.698-.419.21-.21.349-.417.419-.698.14-.277.14-.555.14-.904 0-.279-.07-.626-.14-.905-.07-.28-.28-.489-.42-.698a2.306 2.306 0 0 0-1.533-.557zm-23.163 2.16v.557h-4.953c.072.975.977 1.741 1.954 1.673.698 0 1.396-.279 1.953-.698l.698 1.115a4.34 4.34 0 0 1-2.72.975c-1.815.072-3.349-1.392-3.419-3.203v-.349c0-2.09 1.396-3.554 3.347-3.554 1.954 0 3.14 1.394 3.14 3.484zm-4.953-.626h3.49c0-.907-.77-1.673-1.675-1.673-.977 0-1.815.766-1.815 1.671v.002zm11.094-1.047a4.281 4.281 0 0 0-2.094-.556c-.768 0-1.257.279-1.257.766 0 .488.489.558 1.117.697l.698.068c1.466.21 2.302.838 2.302 2.023 0 1.183-1.115 2.228-3.07 2.228-1.046 0-2.022-.278-2.86-.906l.699-1.184c.626.488 1.395.697 2.231.697.977 0 1.536-.279 1.536-.837 0-.417-.35-.626-1.187-.696l-.698-.07c-1.464-.21-2.301-.906-2.301-2.02 0-1.325 1.117-2.16 2.792-2.16.975-.07 1.882.209 2.72.697l-.628 1.253zm6.975-.347h-2.37v3.066c0 .696.209 1.114.975 1.114.418 0 .907-.14 1.256-.418l.419 1.252c-.559.35-1.187.559-1.815.559-1.743 0-2.301-.906-2.301-2.508v-3.065H71.62v-1.324h1.324v-2.09h1.467v2.09h2.372l.07 1.324zm5.024-1.534c.349 0 .698.072 1.047.21l-.419 1.394c-.28-.14-.628-.14-.907-.14-.977 0-1.396.626-1.396 1.741v3.832h-1.534v-6.827h1.464v.835c.28-.698.977-1.045 1.745-1.045z" fill="#000"/><circle cx="49" cy="33" r="25" fill="#EB001B"/><circle cx="79" cy="33" r="25" fill="#00A1DF"/><path fill-rule="evenodd" clip-rule="evenodd" d="M64 53.002C70.072 48.44 74 41.179 74 33c0-8.18-3.928-15.44-10-20.002C57.928 17.559 54 24.821 54 33c0 8.179 3.928 15.44 10 20.002z" fill="#7673C0"/></svg>
